!!!!SEGMENT: pl-wtm--r-996-2--002_krogulski-jozef-wladyslaw--nieszpory-magnificat.krn
!!!cenid: 18xx:2100
!!!COM: Krogulski, Józef Władysław
!!!COM-rismid: pe30001797
!!!CDT: 1815/10/04-1842/01/09
!!!CNT: Polish
!!!OTL: Nieszpory – Magnificat
!!!PDT: 1836
!!!AGN: Sacred; Vespers
!!!SMS-siglum: PL-Wtm
!!!SMS-shelfmark: R 996/2
!!!SMS-shelfwork: 001-002 M
!!!SMS-variant:
!!!SMS-altvar:
!!!NIFC-rismid: 1001086267
!!!OMD: Andante maestoso.
!!!system-decoration: [(s1)]
**kern	**dynam
*part1	*part1
*staff1	*
*I"Tromba 1a in E.	*
*I'tr 1 in E	*
*clefG2	*
*ITrd-2c-4	*
*k[f#c#g#d#]	*
*e:	*
*M4/4	*
*met(c)	*
=1	=1
!	!LO:DY:b:rj
2e/	f
4g#/	.
4e/	.
=2	=2
4.b/	.
8g#/	.
4e/	.
4r	.
=3	=3
2e/	.
4g#/	.
4b/	.
=4	=4
[>2ee\	.
8ee\L]	.
8b\	.
8g#\	.
8e\J	.
=5	=5
2B/	.
4B/	.
4B/	.
=6	=6
2e/	.
2e/	.
=7	=7
1e	.
=8	=8
2B/	.
2r	.
!!LO:LB:g=original
=9	=9
!LO:TX:a:Bi:t=8.	!
00r	.
=10	=10
.	.
=11	=11
.	.
=12	=12
.	.
=13	=13
00r	.
=14	=14
.	.
=15	=15
.	.
=16	=16
.	.
=17	=17
!	!LO:DY:b:rj
2ee\	f
2r	.
=18	=18
2ee\	.
2r	.
=19	=19
1e	.
=20	=20
2B/	.
4b/	.
4b/	.
=21	=21
2ff#\	.
2gg#\	.
=22	=22
2ff#\	.
2gg#\	.
=23	=23
2.ff#\	.
4b/	.
=24	=24
2b;>/	.
2r	.
=25||	=25||
!!!OMD: Allo vivace
4r	.
!	!LO:DY:b:rj
4b/	f
4b/	.
4b/	.
=26	=26
2ee\	.
2r	.
!!LO:LB:g=original
=27	=27
!LO:TX:a:Bi:t=5.	!
00r	.
=28	=28
.	.
=29	=29
.	.
=30	=30
.	.
=31	=31
1r	.
=32	=32
1b	.
=33	=33
4b/	.
4b/	.
4b/	.
4b/	.
=34	=34
2ee\	.
2r	.
=35	=35
!LO:TX:a:Bi:t=5.	!
00r	.
=36	=36
.	.
=37	=37
.	.
=38	=38
.	.
=39	=39
1r	.
=40	=40
1ff#	.
=41	=41
2b/	.
2r	.
=42	=42
!LO:TX:a:Bi:t=2.	!
!LO:TX:b:Bi:t=VS.	!
0r	.
=43	=43
.	.
!!LO:PB:g=original
=44	=44
4ee\	.
4b\	.
4g#\	.
4b\	.
=45	=45
2gg#\	.
4ff#\	.
4ee\	.
=46	=46
2b/	.
2b/	.
=47	=47
2b/	.
2b/	.
=48	=48
1e	.
=49	=49
2e/	.
4e/	.
4r	.
=50	=50
!LO:TX:a:Bi:t=2.	!
0r	.
=51	=51
.	.
=52	=52
4ee\	.
4b\	.
4g#\	.
4b\	.
=53	=53
2gg#\	.
4ff#\	.
4ee\	.
=54	=54
2b/	.
2b/	.
=55	=55
2b/	.
2b/	.
!!LO:LB:g=original
=56	=56
1e	.
=57	=57
2e/	.
4e/	.
4r	.
=58	=58
!LO:TX:a:Bi:t=7.	!
00r	.
=59	=59
.	.
=60	=60
.	.
=61	=61
.	.
=62	=62
0r	.
=63	=63
.	.
=64	=64
1r	.
=65	=65
1r;>	.
=66	=66
!	!LO:DY:b:rj
2ee\	f
2r	.
=67	=67
!LO:TX:a:Bi:t=5.	!
00r	.
=68	=68
.	.
=69	=69
.	.
=70	=70
.	.
=71	=71
1r	.
=72	=72
1b	.
=73	=73
4b/	.
4b/	.
4b/	.
4b/	.
=74	=74
2ee\	.
2r	.
=75	=75
!LO:TX:a:Bi:t=5.	!
00r	.
=76	=76
.	.
=77	=77
.	.
=78	=78
.	.
=79	=79
1r	.
=80	=80
1b	.
=81	=81
2e/	.
2r	.
=82	=82
2.b/	.
4b/	.
!!LO:LB:g=original
=83	=83
2b/	.
2b/	.
=84	=84
2.b/	.
4b/	.
=85	=85
2b/	.
2b/	.
=86	=86
2b/	.
4b/	.
4b/	.
=87	=87
2b/	.
2b/	.
=88	=88
[<1b	.
=89	=89
2b/]	.
2b/	.
=90	=90
2e;>/	.
2r	.
==	==
*-	*-
!!title: @{OTL};
!!!RDF**kern: > = above
!!!RDF**kern: < = below
!!!RDF**kern: | = vertical stroke
!!!RDF**kern: N = linked
!!!RDF**kern: i = editorial accidental
!!!EED: Wojciech Jakubiak-Danek
!!!EST: 2021-06-09
!!!URL-scan: http://repozytorium.nifc.pl/skany/pl-wtm-nut--r996
!!!ONB-nifc: UWAGA: folder pl-wtm-r996-2
!!!ENC: Krzysztof Stępień
!!!END: 2021-05-27
